X:1
T:E. O. Excell
T:I. D. K.
T:I Am Anchored Fast
%%score { ( 1 2 ) | ( 3 4 ) }
L:1/8
M:6/8
K:Bb
V:1 treble 
V:2 treble 
V:3 bass 
V:4 bass 
V:1
{/x} F2 F G2 F | F B2- B3 | B2 B c2 F | d3- d3 | B2 B B2 G | G F2- F3 | F2 F G2 c | c3- c3 | %8
w: Toss\- ing on the|bil\- low, *|Rock\- ing in the|blast, *|Faint\- ing on the|pil\- low, *|Verg\- ing tow'rd the|last. *|
w: Skies all clad in|sa\- ble, *|Storm\- clouds fly\- ing|past, *|Cling\- ing to the|ca\- ble, *|I am an\- chored|fast *|
w: Gone each earth\- ly|trea\- sure, *|Cut a\- way each|mast, *|Van\- ished earth\- ly|plea\- sure, *|I am an\- chored|fast. *|
w: Sor\- rows mul\- ti\-|ply\- ing, *|Pros\- pects o\- ver\-|cast, *|Weep\- ing, moan\- ing,|sigh\- ing, *|I am an\- chored|fast. *|
"^Refrain" d2 d d2 d | d3 B3 | B2 B B2 B | B3 G3 | F2 d d2 B | c3- (c3 | F3-) F3- | F3- F3 | %16
w: While the tem\- pest|ra\- ges,|To the Rock of|A\- ges|I am an\- chored|fast; *|||
w: ||||||||
w: ||||||||
w: ||||||||
 d2 d d2 d | d3 B3 | B2 B B2 B | B3 G3 | F3- F2 d | d3- d2 c | B3- B3- | B3- B3 |] %24
w: While the tem\- pest|ra\- ges,|To the Rock of|A\- ges|I * am|an\- * chored|fast. *||
w: ||||||||
w: ||||||||
w: ||||||||
V:2
 D2 D E2 D | D D2- D3 | F2 G F2 E | F3- F3 | F2 F G2 E | E D2- D3 | C2 C =E2 E | (F3 E3) | %8
w: ||||||||
w: ||||||||
 F2 F F2 F | _A3 A3 | G2 G G2 G | G3 E3 | F2 F F2 F | B2 A G2 F | E3- E3- | E3- E3 | F2 F F2 F | %17
w: |||||||||
w: |||||I am an- chored|fast; *|||
 _A3 A3 | G2 G G2 G | G3 E3 | D2 D D2 F | F2 F F2 E | D3- D3- | D3- D3 |] %24
w: |||||||
w: |||I am an- chored,|I am an- chored|fast. *||
V:3
 B,2 B, B,2 B, | B, F,2- F,3 | B,2 B, A,2 A, | B,3- B,3 | B,2 B, B,2 B, | B, B,2- B,3 | %6
w: ||||||
 A,2 A, B,2 B, | A,3- A,3 | B,2 B, B,2 B, | B,3 B,3 | B,2 B, B,2 B, | B,3 B,3 | B,2 B, B,2 B, | %13
w: |||||||
 E3- E3 | E2 D C2 B, | A,3- A,3 | B,2 B, B,2 B, | B,3 B,3 | B,2 B, B,2 B, | B,3 B,3 | %20
w: |I am an- chored|fast. *|||||
 B,2 B, B,2 B, | B,2 B, B,2 A, | B,3- B,3 | F,3- F,3 |] %24
w: ||||
V:4
 B,,2 B,, B,,2 B,, | B,, B,,2- B,,3 | D,2 D, F,2 F, | B,,3- B,,3 | D,2 D, E,2 E, | B,, B,,2- B,,3 | %6
 C,2 C, C,2 C, | F,3 F,3 | B,,2 B,, B,,2 B,, | B,,3 B,,3 | E,2 E, E,2 E, | E,3 E,3 | %12
 D,2 B,, B,,2 D, | F,3- F,3 | F,3- F,3- | F,3- F,3 | B,,2 B,, B,,2 B,, | B,,3 B,,3 | %18
 E,2 E, E, E,2 | E,3 E,3 | F,2 F, F,2 F, | F,2 F, F,2 F, | B,,3- B,,3- | B,,3- B,,3 |] %24

